packages/ui/app/images/icons/shell.svg

<?xml version="1.0" encoding="UTF-8"?>
<svg width="23px" height="20px" viewBox="0 0 23 20" version="1.1" xmlns="http://www.w3.org/2000/svg" xmlns:xlink="http://www.w3.org/1999/xlink">
    <!-- Generator: Sketch 52.5 (67469) - http://www.bohemiancoding.com/sketch -->
    <title>操作管理-命令操作</title>
    <desc>Created with Sketch.</desc>
    <g id="0516" stroke="none" stroke-width="1" fill="none" fill-rule="evenodd">
        <g id="网络(容器IP)列表" transform="translate(-963.000000, -23.000000)" fill="#FFFFFF" fill-rule="nonzero">
            <g id="操作管理-命令操作" transform="translate(963.000000, 23.000000)">
              <path d="M0,1.42770003 L0,18.5601004 C1.50657257e-15,19.3485973 0.643198094,19.9878004 1.43662315,19.9878004 L21.5493473,19.9878004 C22.3427724,19.9878004 22.9859705,19.3485973 22.9859705,18.5601004 L22.9859705,1.42770003 C22.9859705,0.639203075 22.3427724,4.82815134e-17 21.5493473,0 L1.43662315,0 C0.643198094,-4.82815134e-17 9.71665458e-17,0.639203075 0,1.42770003 Z M21.703066,18.7385629 L1.28290447,18.7385629 L1.28290447,1.24923753 L21.703066,1.24923753 L21.703066,18.7385629 Z M8.90993681,9.99390021 L4.82992705,6.01918333 C4.71023639,5.90263931 4.64278781,5.74312246 4.64278781,5.57659632 C4.64278781,5.41007018 4.71023639,5.25055332 4.82992705,5.1340093 C5.08214381,4.88709775 5.48709274,4.88709775 5.7393095,5.1340093 L9.6785302,8.97452239 C9.9540596,9.24302731 10.1093078,9.61040156 10.1093078,9.99390021 C10.1093078,10.3773989 9.9540596,10.7447731 9.6785302,11.013278 L6.18753593,14.4112041 C5.6847765,14.900946 4.88015019,14.900946 4.37739076,14.4112041 L8.90850018,9.99390021 L8.90993681,9.99390021 Z M17.9807754,14.1556458 L11.5418304,14.1556458 C11.194707,14.1556458 10.9133078,13.8759945 10.9133078,13.531027 C10.9133078,13.1860596 11.194707,12.9064083 11.5418304,12.9064083 L17.9807754,12.9064083 C18.3278989,12.9064083 18.609298,13.1860596 18.609298,13.531027 C18.609298,13.8759945 18.3278989,14.1556458 17.9807754,14.1556458 Z" id="形状"></path>
            </g>
        </g>
    </g>
</svg>

<svg width="23" height="20" xmlns="http://www.w3.org/2000/svg">
  <path d="M0 1.428V18.56c0 .789.643 1.428 1.437 1.428h20.112c.794 0 1.437-.64 1.437-1.428V1.428C22.986.639 22.343 0 21.549 0H1.437C.643 0 0 .64 0 1.428zm21.703 17.31H1.283V1.25h20.42v17.49zM8.91 9.995L4.83 6.019a.618.618 0 010-.885.65.65 0 01.91 0l3.939 3.84a1.423 1.423 0 010 2.04L6.188 14.41c-.503.49-1.308.49-1.81 0l4.53-4.417h.002zm9.07 4.162h-6.438a.627.627 0 01-.629-.625c0-.345.282-.625.629-.625h6.439c.347 0 .628.28.628.625a.627.627 0 01-.628.625z" fill="#FFF" fill-rule="nonzero"/>
</svg>
